X:362
T:Rachel
C:
N:Transcribed by Tristan Scroggins Based on Tommy Jackson's version from Square Dances Without Calls
R:bluegrass
L:1/8
Q:1/4=160
M:4/4
K:C
D2 | z^F A^c d2 F2 | GA Bd gd Bd | A^c ea g^f eg | ^fd Bd AG ^FE | D^F A^c dA FD | 
GA Bd gd Bd | A^c ea ge cA | [^f2d2] [f4d4] D2 | zE ^FA dA FD | GA Bd gd Bd | 
A^c ea g^f eg | ^fd Bd AG ^FE | DE ^FA dA FD | GA Bd g2 B2 | AB ^ce ae cA | [^f2d2] [f4d4] Ad | 
|: ^f4 g4 | ba ^fg a4 | A^c ea g^f eg | ^fd Bd A^c d2 | e/^f3/2 z2 g4 | ba ^fg a4 | 
A^c ea ge cA |1 [^f2d2] [f4d4] Ad :|2 [^f2d2] [f6d6] | 


